public/female.svg

<svg width="48" height="48" viewBox="0 0 48 48" fill="none" xmlns="http://www.w3.org/2000/svg">
<path d="M31.3411 34.2946L31.4135 34.5844L31.7033 34.6569L39.3653 36.5729C44.1577 37.7714 47.5023 42.0563 47.5023 46.996C47.5023 47.2757 47.2745 47.5023 47 47.5023H1C0.722884 47.5023 0.497719 47.2771 0.497719 47C0.497719 42.0562 3.84246 37.7714 8.63274 36.5729C8.63276 36.5729 8.63279 36.5728 8.63281 36.5728L16.2947 34.6569L16.5843 34.5844L16.6568 34.2948L17.0988 32.5288L17.2297 32.0059L16.698 31.9171C11.4525 31.0412 8.81703 29.4754 8.7402 29.4293C8.59687 29.343 8.50664 29.1937 8.49708 29.0246C8.48955 28.8587 8.56463 28.6989 8.69911 28.5978L8.69913 28.5978L8.70347 28.5945C8.87421 28.4632 12.4977 25.3521 12.4977 15C12.4977 4.08741 20.481 0.497719 24 0.497719C25.417 0.497719 26.3389 0.648238 27.0666 0.941208C27.7899 1.23238 28.3637 1.68086 29.0641 2.35787L29.2088 2.49772H29.41H30C30.8983 2.49772 31.6668 2.74232 32.3247 3.22074C32.9878 3.70305 33.5657 4.44314 34.0413 5.47381C34.9982 7.54712 35.5023 10.7105 35.5023 15C35.5023 25.27 39.0684 28.4119 39.2994 28.5969C39.4334 28.7039 39.5058 28.8693 39.4955 29.0294C39.4821 29.2055 39.3885 29.3533 39.2568 29.4303L39.2566 29.4304C39.1664 29.4831 36.5032 31.037 31.2994 31.9132L30.7687 32.0025L30.8991 32.5246L31.3411 34.2946Z" fill="#FFBC58" fill-opacity="0.5" stroke="#FBA21C" stroke-width="0.995439"/>
</svg>

<svg width="48" height="48" fill="none" xmlns="http://www.w3.org/2000/svg"><path d="M31.341 34.295l.072.29.29.072 7.662 1.916a10.726 10.726 0 018.137 10.423c0 .28-.227.506-.502.506H1A.503.503 0 01.498 47c0-4.944 3.344-9.229 8.135-10.427 0 0 0 0 0 0l7.662-1.916.29-.073.072-.29.442-1.765.13-.523-.531-.089c-5.245-.876-7.881-2.442-7.958-2.488a.502.502 0 01-.04-.831h0l.003-.003c.171-.132 3.795-3.243 3.795-13.595C12.498 4.087 20.48.498 24 .498c1.417 0 2.339.15 3.067.443.723.291 1.297.74 1.997 1.417l.145.14H30c.898 0 1.667.244 2.325.723.663.482 1.24 1.222 1.716 2.253.957 2.073 1.461 5.236 1.461 9.526 0 10.27 3.566 13.412 3.797 13.597a.519.519 0 01.197.432.504.504 0 01-.24.401h0c-.09.053-2.753 1.607-7.957 2.483l-.53.09.13.522.442 1.77z" fill="#FFBC58" fill-opacity=".5" stroke="#FBA21C" stroke-width=".995"/></svg>
